X:68
T: Da suanzao
N: C0088
O: China, Shanxi, Xixian
S: I, 325, 1) + Kopie der Beilage]
N: +++DOUBLETTE!!!+++ Die ersten Cuts sind nur auf 1 Kanal!!
N: Pinyin-Text der ersten Strophe vorhanden!
R: Xiaodiao, Wuge, Yangge]
M: 2/4
L: 1/16
K: C
dedcA4 | dgdcA4 | d2dgA2c2 | d8
c2cdg2ge | d6c2
A2Adc2cA | GAF4Ac | GAF6
A2AAd2B2 | A6G2 | F2GAAGFE | D8

